X:194
T:Kiss My Lady TS.194
M:6/8
L:1/8
Q:3/8=120
S:Thomas Sands’ MS,1810,Lincolnshire
R:jig
O:England;Lincolnshire
Z:vmp.Ruairidh Greig, 2011
K:A
e|efd cdB|AGA E2D|C2EA2B|c2BB2e|
efd cdB|AGA E2D|C2EA2B|”crotchet in MS”c2AA2:|
|:z|a2Ac2A|a2Ac2A|GABB2A|GABB3|
a2Ac2A|a2Ac2A|E2Ac2B|B3A3:|
|:c2e f2e|c2ef2e|f2ef2e|edcB3|
c2ef2e|c2ef2e|f2ef2g|a2AA3:|]

